X:1
T:B Major Walter Janes, 1807
T:Isaac Watts, 1717 (Psalm 27, Part 1)                86. 86. (C. M.)
T:Exaltation
T:Transcribed from The Harmonic Minstrelsey, 1807.
%%score [ 1 2 3 4 ]
L:1/8
Q:1/4=150
M:4/4
K:B
V:1 treble nm="Treble\nI" snm="Tr.\nI"
V:2 treble nm="Treble\nII" snm="Tr.\nII"
V:3 treble-8 nm="Tenor" snm="T."
V:4 bass nm="Bass" snm="B."
V:1
"^2. The      Lord   of         glo    –      ry     is          my      light,     And     my         sal      –      va     –     tion                 too;                 God""^1. Now    shall    my       head        be      lif   –   ted      high       A   –   bove       my             foes          a           –         round,           And" B,4 | %1
 D4 F4 | B6 B,2 | D4 F4 | B6 B2 | (A2 B2) (c2 d2) | (^e2 d2) (c2 B2) |[M:3/2] (B4 A2) z2 d4 | %8
"^1. songs   of   joy         and                vic   –    to – ry,           And                  songs    of    joy          and                 vic  –   to – ry,""^2. is          my  strength,  nor            will        I       fear,         God                  is          my   strength,  nor              will       I      fear," f3 f f4 (d3 e) | %9
 f3 f f4 F4 | B3 B B4 (d3 c) | B3 B B4 z4 |[M:4/4] z8 | %13
 z4"^1. With  –  in  thy temple sound, _______________________                              Within         thy        tem—ple           sound,""^2. What      all  my foes can do, __________________________                              What  all       my       foes    can           do.""^3. The         temples of my God, _________________________                               The   tem  – ples      of        my           God!""^4. He           makes my soul abide. _______________________                               He    makes  my       soul    a       –     bide." c4 | %14
 d2 e2 f2 c2 | f8- | f8- | f8 | z4 F4 | (B2 c2) (d2 g2) | f4 (3c2 d2 e2 | d8 |] %22
V:2
 B,4 | D4 F4 | B6 B,2 | D4 F4 | B6 F2 | F4 F4 | ^E4 E4 |[M:3/2] F6 z2 F4 | B3 B B4 B4 | %9
 A3 A A4 (B3 c) | d3 d d4 d4 | G3 G G4 z4 |[M:4/4] z8 | z8 | %14
 z4"^1. With  –   in  thy temple sound, __________                      With–in       thy       tem—ple         sound,""^2. What       all  my foes can do, _____________                      What  all       my       foes    can        do.""^3. The          temples  of  my God, ___________                      The   tem –  ples      of        my        God!""^4. He           makes my soul abide. ___________                      He    makes   my      soul    a    –    bide." B4 | %15
 A2 B2 c2 c2 | F8- | F8 | z4 F4 | (G2 A2) (B2 c2) | B4 A4 | B8 |] %22
V:3
"^4. When   trou – bles     rise,       and    storms ap  –  pear,      There  may        his             chil    –   dren                hide;              God""^3. One      pri  –  vi   –   lege         my     heart   de  –   sires;      O       grant        me              an            a          –          bode               A  –" B,4 | %1
 D4 F4 | B6 B,2 | D4 F4 | B6 d2 | (c2 B2) (A2 B2) | (c2 d2) (^e2 d2) |[M:3/2] (d4 c2) z2 B4 | %8
"^3. –mong the chur  –  ches               of         thy   saints,    A          –         mong     the  chur  –   ches                of         thy saints,""^4.  has       a     strong    pa         –      vi   –   lion   where,   God                 has         a      strong     pa        –         vi   –  lion where" d3 d d4 f4 | %9
 c3 c c4 (d3 e) | f3 f f4 d4 | e3 e e4 z4 | %12
[M:4/4] z4"^1. With – in  thy temple sound, ____________         With  –  in thy temple sound,           With–in       thy         tem—ple          sound,""^2. What    all  my foes can do, ______________          What      all my foes can do,                What  all       my         foes   can           do.""^3. The       temples  of  my God, ____________          The         temples of my  God,              The   tem –  ples       of       my           God!""^4. He         makes my soul abide. ___________          He           makes my soul abide,           He    makes  my        soul    a      –     bide." c4 | %13
 d2 e2 f2 c2 | f8- | f2 z2 c4 | d2 c2 B2 c2 | d8 | z4 d4 | (e2 g2) (f2 e2) | d4 c4 | B8 |] %22
V:4
 B,,4 | D,4 F,4 | B,6 B,,2 | D,4 F,4 | B,6 B,2 | F,4 F,4 | C,4 C,4 |[M:3/2] F,6 z2 B,,4 | %8
 B,3 B, B,4 B,,4 | F,3 F, F,4 (D,3 C,) | B,,3 B,, B,,4 B,4 | %11
 E,3 E, E,4"^3. The""^4. He""^1. With—""^2. What" B,4 | %12
[M:4/4]"^1. –in thy temple sound, ___________        With  –  in thy temple sound, ______________               With–in         thy       tem—ple           sound,""^2.  all  my foes can do, _______________        What      all my foes can do, _________________               What  all         my       foes   can             do.""^3. temples  of  my God, _____________         The         temples of my  God, _______________                The   tem –   ples      of      my             God!""^4. makes my soul abide. ____________         He           makes my soul abide, _____________                He    makes   my      soul    a       –      bide." C2 B,2 A,2 G,2 | %13
 F,8- | F,2 z2 B,4 | F,2 G,2 A,2 F,2 | B,8- | B,8 | z4 B,4 | (G,2 E,2) (D,2 E,2) | F,4 F,4 | %21
 B,,8 |] %22

